!!!SOCIAL_FUNCTION:	deer dance songs
!!!PDT:	1932
!!!OTL: No_70_Song_Concerning_the_Deer.krn
!!!REG: Southwest
!!!LANG: Non-Tone
!!!LING_GROUP: Yuman-Cochimi
**kern
*staff1
=1-
*clefF4
*k[b-e-a-d-g-]
*M2/4
4r
8r
8A-\
=2
8A-\L
8A-\J
4A-\
=3
4.d-\
8c\
=4||
*M3/4
8.d-\L
16c\Jk
8.d-\L
16B-\Jk
8B-\
8r
=5
4B-\
4r
8.r
16A-\
=6||
*M2/4
8.B-\L
16A-\Jk
8A-\
8r
=7
4..d-\
16B-\
=8||
*M3/4
8.d-\L
16B-\Jk
8.B-\L
16A-\Jk
4A-\
=9
2A-\
4r
=10||
*M2/4
4A-\
4A-\
=11
4..c-\
16A-\
=12||
*M3/4
8.c-\L
16A-\Jk
8.A-\L
16A-\Jk
4A-\
=13
4A-\
2r
=14||
*M2/4
8A-\L
8A-\J
4A-\
=15||
*M3/4
2A-\
8.E-\L
16A-\Jk
=16||
*M2/4
8.A-\L
16A-\Jk
8.A-\L
16A-\Jk
=17
4A-\
8.E-\L
16E-\Jk
=18
8.A-\L
16A-\Jk
4A-\
=19
4A-\
8.r
16E-\
=20
8.B-\L
16A-\Jk
4B-\
=21
4.d-\
8B-\
=22||
*M3/4
8.d-\L
16B-\Jk
8.B-\L
16A-\Jk
4A-\
=23
2A-\
4r
=24||
*M2/4
8A-\L
8A-\J
4A-\
=25
4..c-\
16A-\
=26||
*M3/4
8.c\L
16A-\Jk
8.A-\L
16A-\Jk
8.A-\L
16A-\Jk
=27
4A-\
4..r
16F\
=28||
*M2/4
8A-\L
8A-\J
4A-\
=29||
*M3/4
2A-\
8.E-\L
16A-\Jk
=30||
*M2/4
8.A-\L
16A-\Jk
8.A-\L
16A-\Jk
=31
4A-\
8.E-\L
16E-\Jk
=32
8.A-\L
16A-\Jk
4A-\
=33
4A-\
4r
==
*-
